svg/logic-apps.svg

<?xml version="1.0" encoding="UTF-8"?>
<svg xmlns="http://www.w3.org/2000/svg" xmlns:xlink="http://www.w3.org/1999/xlink" width="42.271999" height="32" viewBox="0 0 42.271999 32">
<path fill-rule="evenodd" fill="rgb(34.901962%, 70.588237%, 85.09804%)" fill-opacity="1" d="M 21.769531 12.984375 L 21.769531 8.914062 L 19.695312 8.914062 L 19.695312 12.984375 C 19.695312 13.71875 19.03125 14.371094 17.953125 14.695312 L 15.132812 15.265625 C 13.222656 15.835938 11.894531 17.304688 11.894531 18.933594 L 11.894531 23.574219 L 13.96875 23.574219 L 13.96875 18.933594 C 13.96875 18.199219 14.632812 17.546875 15.710938 17.222656 L 18.53125 16.570312 C 20.441406 16.082031 21.769531 14.617188 21.769531 12.984375 M 21.769531 12.984375 "/>
<path fill-rule="evenodd" fill="rgb(49.803922%, 72.941178%, 0%)" fill-opacity="1" d="M 16.457031 25.691406 L 16.457031 21.945312 C 16.457031 21.050781 15.710938 20.316406 14.800781 20.316406 L 10.984375 20.316406 C 10.070312 20.316406 9.324219 21.050781 9.324219 21.945312 L 9.324219 25.691406 C 9.324219 26.589844 10.070312 27.324219 10.984375 27.324219 L 14.800781 27.324219 C 15.710938 27.324219 16.457031 26.589844 16.457031 25.691406 M 16.457031 25.691406 "/>
<path fill-rule="evenodd" fill="rgb(34.901962%, 70.588237%, 85.09804%)" fill-opacity="1" d="M 19.445312 12.984375 L 19.445312 8.914062 L 21.519531 8.914062 L 21.519531 12.984375 C 21.519531 13.71875 22.183594 14.371094 23.261719 14.695312 L 26.746094 15.429688 C 28.652344 16 29.980469 17.464844 29.980469 19.09375 L 29.980469 23.738281 L 27.90625 23.738281 L 27.90625 19.09375 C 27.90625 18.363281 27.242188 17.710938 26.164062 17.382812 L 22.679688 16.652344 C 20.773438 16.082031 19.445312 14.617188 19.445312 12.988281 Z M 19.445312 12.984375 "/>
<path fill-rule="evenodd" fill="rgb(49.803922%, 72.941178%, 0%)" fill-opacity="1" d="M 25.417969 25.855469 L 25.417969 22.109375 C 25.417969 21.214844 26.164062 20.480469 27.078125 20.480469 L 30.894531 20.480469 C 31.804688 20.480469 32.554688 21.214844 32.554688 22.109375 L 32.554688 25.855469 C 32.554688 26.753906 31.804688 27.484375 30.894531 27.484375 L 27.078125 27.484375 C 26.164062 27.484375 25.417969 26.753906 25.417969 25.855469 M 25.417969 25.855469 "/>
<path fill-rule="evenodd" fill="rgb(34.901962%, 70.588237%, 85.09804%)" fill-opacity="1" d="M 19.445312 8.914062 L 21.769531 8.914062 L 21.769531 12.824219 L 19.445312 12.824219 Z M 19.445312 8.914062 "/>
<path fill-rule="evenodd" fill="rgb(0%, 44.705883%, 77.64706%)" fill-opacity="1" d="M 22.183594 5.167969 L 22.183594 8.179688 L 19.113281 8.179688 L 19.113281 5.167969 Z M 22.847656 2.886719 L 18.449219 2.886719 C 17.535156 2.886719 16.789062 3.617188 16.789062 4.515625 L 16.789062 8.832031 C 16.789062 9.726562 17.535156 10.460938 18.449219 10.460938 L 22.847656 10.460938 C 23.757812 10.460938 24.503906 9.726562 24.503906 8.832031 L 24.503906 4.515625 C 24.503906 3.617188 23.757812 2.886719 22.847656 2.886719 M 22.847656 2.886719 "/>
<path fill-rule="evenodd" fill="rgb(34.901962%, 70.588237%, 85.09804%)" fill-opacity="1" d="M 6.75 31.800781 C 5.007812 31.800781 3.765625 31.476562 3.019531 30.90625 C 2.273438 30.253906 1.941406 29.195312 1.941406 27.648438 L 1.941406 19.175781 C 1.941406 17.792969 1.359375 17.058594 0.199219 17.058594 L 0.199219 14.941406 C 1.359375 14.941406 1.941406 14.207031 1.941406 12.742188 L 1.941406 4.433594 C 1.941406 2.886719 2.273438 1.746094 3.019531 1.09375 C 3.765625 0.441406 5.007812 0.199219 6.75 0.199219 L 6.75 2.316406 C 5.507812 2.316406 4.84375 2.96875 4.84375 4.351562 L 4.84375 12.496094 C 4.84375 14.371094 4.261719 15.511719 3.019531 16 C 4.179688 16.488281 4.84375 17.628906 4.84375 19.503906 L 4.84375 27.566406 C 4.84375 28.300781 5.007812 28.871094 5.257812 29.195312 C 5.589844 29.523438 6.003906 29.683594 6.667969 29.683594 Z M 6.75 31.800781 C 6.667969 31.800781 6.75 31.800781 6.75 31.800781 M 35.125 0.199219 C 36.867188 0.199219 38.113281 0.523438 38.859375 1.09375 C 39.605469 1.746094 39.9375 2.804688 39.9375 4.351562 L 39.9375 12.824219 C 39.9375 14.207031 40.515625 14.941406 41.679688 14.941406 L 41.679688 17.058594 C 40.515625 17.058594 39.9375 17.792969 39.9375 19.257812 L 39.9375 27.484375 C 39.9375 29.03125 39.605469 30.171875 38.859375 30.824219 C 38.113281 31.476562 36.867188 31.800781 35.125 31.800781 L 35.125 29.683594 C 36.371094 29.683594 37.03125 29.03125 37.03125 27.648438 L 37.03125 19.503906 C 37.03125 17.628906 37.613281 16.488281 38.859375 16 C 37.695312 15.511719 37.03125 14.371094 37.03125 12.496094 L 37.03125 4.433594 C 37.03125 3.699219 36.867188 3.128906 36.617188 2.804688 C 36.285156 2.476562 35.871094 2.316406 35.207031 2.316406 Z M 35.125 0.199219 "/>
</svg>

<svg role="img" viewBox="0 0 42.272 32" xmlns="http://www.w3.org/2000/svg"><path d="M21.77 12.984v-4.07h-2.075v4.07c0 .735-.664 1.387-1.742 1.711l-2.82.57c-1.91.57-3.238 2.04-3.238 3.669v4.64h2.074v-4.64c0-.735.664-1.387 1.742-1.711l2.82-.653c1.91-.488 3.239-1.953 3.239-3.586m0 0" fill="rgb(34.901962%, 70.588237%, 85.09804%)" fill-rule="evenodd"/><path d="M16.457 25.691v-3.746c0-.894-.746-1.629-1.656-1.629h-3.817c-.914 0-1.66.735-1.66 1.63v3.745c0 .899.746 1.633 1.66 1.633h3.817c.91 0 1.656-.734 1.656-1.633m0 0" fill="rgb(49.803922%, 72.941178%, 0%)" fill-rule="evenodd"/><path d="M19.445 12.984v-4.07h2.075v4.07c0 .735.664 1.387 1.742 1.711l3.484.735c1.906.57 3.234 2.035 3.234 3.664v4.644h-2.074v-4.644c0-.73-.664-1.383-1.742-1.711l-3.484-.73c-1.907-.571-3.235-2.036-3.235-3.665Zm0 0" fill="rgb(34.901962%, 70.588237%, 85.09804%)" fill-rule="evenodd"/><path d="M25.418 25.855V22.11c0-.894.746-1.629 1.66-1.629h3.817c.91 0 1.66.735 1.66 1.63v3.745c0 .899-.75 1.63-1.66 1.63h-3.817c-.914 0-1.66-.731-1.66-1.63m0 0" fill="rgb(49.803922%, 72.941178%, 0%)" fill-rule="evenodd"/><path d="M19.445 8.914h2.325v3.91h-2.325Zm0 0" fill="rgb(34.901962%, 70.588237%, 85.09804%)" fill-rule="evenodd"/><path d="M22.184 5.168V8.18h-3.07V5.168Zm.664-2.281h-4.399c-.914 0-1.66.73-1.66 1.629v4.316c0 .895.746 1.629 1.66 1.629h4.399c.91 0 1.656-.734 1.656-1.629V4.516c0-.899-.746-1.63-1.656-1.63m0 0" fill="rgb(0%, 44.705883%, 77.64706%)" fill-rule="evenodd"/><path d="M6.75 31.8c-1.742 0-2.984-.323-3.73-.894-.747-.652-1.079-1.71-1.079-3.258v-8.472c0-1.383-.582-2.117-1.742-2.117V14.94q1.741 0 1.742-2.199V4.434c0-1.547.332-2.688 1.079-3.34C3.766.44 5.008.199 6.75.199v2.117c-1.242 0-1.906.653-1.906 2.036v8.144c0 1.875-.582 3.016-1.824 3.504 1.16.488 1.824 1.629 1.824 3.504v8.062c0 .735.164 1.305.414 1.63.332.327.746.488 1.41.488Zm0 0c-.082 0 0 0 0 0M35.125.2c1.742 0 2.988.323 3.734.894.746.652 1.078 1.71 1.078 3.258v8.472c0 1.383.579 2.117 1.743 2.117v2.118q-1.744 0-1.742 2.199v8.226c0 1.547-.333 2.688-1.079 3.34q-1.12.978-3.734.977v-2.117c1.246 0 1.906-.653 1.906-2.036v-8.144c0-1.875.582-3.016 1.828-3.504-1.164-.488-1.828-1.629-1.828-3.504V4.434c0-.735-.164-1.305-.414-1.63-.332-.327-.746-.488-1.41-.488Zm0 0" fill="rgb(34.901962%, 70.588237%, 85.09804%)" fill-rule="evenodd"/></svg>
